components/导航一/src/assets/navigation.svg

<?xml version="1.0" encoding="UTF-8"?>
<svg width="1864px" height="57px" viewBox="0 0 1864 57" version="1.1" xmlns="http://www.w3.org/2000/svg" xmlns:xlink="http://www.w3.org/1999/xlink">
    <title>标题</title>
    <defs>
        <linearGradient x1="3.24651217%" y1="50%" x2="100%" y2="50%" id="linearGradient-1">
            <stop stop-color="#460BEB" stop-opacity="0.1" offset="0%"></stop>
            <stop stop-color="#59D5F5" offset="100%"></stop>
        </linearGradient>
    </defs>
    <g id="页面-1" stroke="none" stroke-width="1" fill="none" fill-rule="evenodd">
        <g id="二期组件规划" transform="translate(-161.000000, -3128.000000)">
            <g id="标题" transform="translate(163.000000, 3130.000000)">
                <g id="装饰" transform="translate(0.000000, 0.973092)">
                    <g id="装饰-左">
                        <polyline id="Line-7" stroke="#028FF1" stroke-width="2.46140273" stroke-linecap="square" points="20.5116895 10.6660785 639.144243 10.6660785 690.013233 51.6894574 996.04764 51.6894574"></polyline>
                        <circle id="Oval-21" stroke="#028FF1" stroke-width="2.46140273" cx="9.84561094" cy="9.84561094" r="9.84561094"></circle>
                        <polyline id="Path-18" stroke="#028FF1" stroke-width="2.46140273" points="11.4865461 19.6912219 18.0502867 27.0754301 245.319806 27.0754301 269.113366 52.509925 656.536613 52.509925"></polyline>
                        <path d="M297.009263,21.332157 L310.136745,31.177768 L297.009263,41.0233789 L283.881782,41.0233789 L297.009263,31.177768 L283.881782,21.332157 L297.009263,21.332157 Z M318.34142,21.332157 L331.468902,31.177768 L318.34142,41.0233789 L305.213939,41.0233789 L318.34142,31.177768 L305.213939,21.332157 L318.34142,21.332157 Z M339.673577,21.332157 L352.801059,31.177768 L339.673577,41.0233789 L326.546096,41.0233789 L339.673577,31.177768 L326.546096,21.332157 L339.673577,21.332157 Z M361.005734,21.332157 L374.133216,31.177768 L361.005734,41.0233789 L347.878253,41.0233789 L361.005734,31.177768 L347.878253,21.332157 L361.005734,21.332157 Z M382.337891,21.332157 L395.465373,31.177768 L382.337891,41.0233789 L369.21041,41.0233789 L382.337891,31.177768 L369.21041,21.332157 L382.337891,21.332157 Z M403.670049,21.332157 L416.79753,31.177768 L403.670049,41.0233789 L390.542567,41.0233789 L403.670049,31.177768 L390.542567,21.332157 L403.670049,21.332157 Z M425.002206,21.332157 L438.129687,31.177768 L425.002206,41.0233789 L411.874724,41.0233789 L425.002206,31.177768 L411.874724,21.332157 L425.002206,21.332157 Z M446.334363,21.332157 L459.461844,31.177768 L446.334363,41.0233789 L433.206881,41.0233789 L446.334363,31.177768 L433.206881,21.332157 L446.334363,21.332157 Z M467.66652,21.332157 L480.794001,31.177768 L467.66652,41.0233789 L454.539038,41.0233789 L467.66652,31.177768 L454.539038,21.332157 L467.66652,21.332157 Z M488.998677,21.332157 L502.126158,31.177768 L488.998677,41.0233789 L475.871195,41.0233789 L488.998677,31.177768 L475.871195,21.332157 L488.998677,21.332157 Z M510.330834,21.332157 L523.458315,31.177768 L510.330834,41.0233789 L497.203352,41.0233789 L510.330834,31.177768 L497.203352,21.332157 L510.330834,21.332157 Z M531.662991,21.332157 L544.790472,31.177768 L531.662991,41.0233789 L518.535509,41.0233789 L531.662991,31.177768 L518.535509,21.332157 L531.662991,21.332157 Z M552.995148,21.332157 L566.122629,31.177768 L552.995148,41.0233789 L539.867667,41.0233789 L552.995148,31.177768 L539.867667,21.332157 L552.995148,21.332157 Z M574.327305,21.332157 L587.454786,31.177768 L574.327305,41.0233789 L561.199824,41.0233789 L574.327305,31.177768 L561.199824,21.332157 L574.327305,21.332157 Z M595.659462,21.332157 L608.786943,31.177768 L595.659462,41.0233789 L582.531981,41.0233789 L595.659462,31.177768 L582.531981,21.332157 L595.659462,21.332157 Z M616.991619,21.332157 L630.1191,31.177768 L616.991619,41.0233789 L603.864138,41.0233789 L616.991619,31.177768 L603.864138,21.332157 L616.991619,21.332157 Z" id="Combined-Shape" fill="url(#linearGradient-1)"></path>
                        <rect id="Rectangle-26" fill="#67C5FF" x="82.0467578" y="9.02514336" width="70.5602117" height="4.92280547"></rect>
                    </g>
                    <g id="装饰-左" transform="translate(1361.500000, 26.500000) scale(-1, 1) translate(-1361.500000, -26.500000) translate(863.000000, 0.000000)">
                        <polyline id="Line-7" stroke="#028FF1" stroke-width="2.46140273" stroke-linecap="square" points="20.5116895 10.6660785 639.144243 10.6660785 690.013233 51.6894574 996.04764 51.6894574"></polyline>
                        <path d="M296.188796,21.332157 L309.316277,31.177768 L296.188796,41.0233789 L283.061315,41.0233789 L296.188796,31.177768 L283.061315,21.332157 L296.188796,21.332157 Z M317.520953,21.332157 L330.648434,31.177768 L317.520953,41.0233789 L304.393472,41.0233789 L317.520953,31.177768 L304.393472,21.332157 L317.520953,21.332157 Z M338.85311,21.332157 L351.980591,31.177768 L338.85311,41.0233789 L325.725629,41.0233789 L338.85311,31.177768 L325.725629,21.332157 L338.85311,21.332157 Z M360.185267,21.332157 L373.312748,31.177768 L360.185267,41.0233789 L347.057786,41.0233789 L360.185267,31.177768 L347.057786,21.332157 L360.185267,21.332157 Z M381.517424,21.332157 L394.644905,31.177768 L381.517424,41.0233789 L368.389943,41.0233789 L381.517424,31.177768 L368.389943,21.332157 L381.517424,21.332157 Z M402.849581,21.332157 L415.977062,31.177768 L402.849581,41.0233789 L389.7221,41.0233789 L402.849581,31.177768 L389.7221,21.332157 L402.849581,21.332157 Z M424.181738,21.332157 L437.309219,31.177768 L424.181738,41.0233789 L411.054257,41.0233789 L424.181738,31.177768 L411.054257,21.332157 L424.181738,21.332157 Z M445.513895,21.332157 L458.641376,31.177768 L445.513895,41.0233789 L432.386414,41.0233789 L445.513895,31.177768 L432.386414,21.332157 L445.513895,21.332157 Z M466.846052,21.332157 L479.973533,31.177768 L466.846052,41.0233789 L453.718571,41.0233789 L466.846052,31.177768 L453.718571,21.332157 L466.846052,21.332157 Z M488.178209,21.332157 L501.30569,31.177768 L488.178209,41.0233789 L475.050728,41.0233789 L488.178209,31.177768 L475.050728,21.332157 L488.178209,21.332157 Z M509.510366,21.332157 L522.637847,31.177768 L509.510366,41.0233789 L496.382885,41.0233789 L509.510366,31.177768 L496.382885,21.332157 L509.510366,21.332157 Z M530.842523,21.332157 L543.970004,31.177768 L530.842523,41.0233789 L517.715042,41.0233789 L530.842523,31.177768 L517.715042,21.332157 L530.842523,21.332157 Z M552.17468,21.332157 L565.302161,31.177768 L552.17468,41.0233789 L539.047199,41.0233789 L552.17468,31.177768 L539.047199,21.332157 L552.17468,21.332157 Z M573.506837,21.332157 L586.634318,31.177768 L573.506837,41.0233789 L560.379356,41.0233789 L573.506837,31.177768 L560.379356,21.332157 L573.506837,21.332157 Z M594.838994,21.332157 L607.966476,31.177768 L594.838994,41.0233789 L581.711513,41.0233789 L594.838994,31.177768 L581.711513,21.332157 L594.838994,21.332157 Z M616.171151,21.332157 L629.298633,31.177768 L616.171151,41.0233789 L603.04367,41.0233789 L616.171151,31.177768 L603.04367,21.332157 L616.171151,21.332157 Z" id="Combined-Shape备份" fill="url(#linearGradient-1)"></path>
                        <circle id="Oval-21" stroke="#028FF1" stroke-width="2.46140273" cx="9.84561094" cy="9.84561094" r="9.84561094"></circle>
                        <polyline id="Path-18" stroke="#028FF1" stroke-width="2.46140273" points="11.4865461 19.6912219 18.0502867 27.0754301 245.319806 27.0754301 269.113366 52.509925 656.536613 52.509925"></polyline>
                        <rect id="Rectangle-26" fill="#67C5FF" x="82.0467578" y="9.02514336" width="70.5602117" height="4.92280547"></rect>
                    </g>
                </g>
            </g>
        </g>
    </g>
</svg>

<svg width="1864" height="57" xmlns="http://www.w3.org/2000/svg"><defs><linearGradient x1="3.247%" y1="50%" x2="100%" y2="50%" id="a"><stop stop-color="#460BEB" stop-opacity=".1" offset="0%"/><stop stop-color="#59D5F5" offset="100%"/></linearGradient></defs><g fill="none" fill-rule="evenodd"><g transform="translate(2 2.973)"><path stroke="#028FF1" stroke-width="2.461" stroke-linecap="square" d="M20.512 10.666h618.632l50.87 41.023h306.034"/><circle stroke="#028FF1" stroke-width="2.461" cx="9.846" cy="9.846" r="9.846"/><path stroke="#028FF1" stroke-width="2.461" d="m11.487 19.691 6.563 7.384h227.27l23.793 25.435h387.424"/><path d="m297.01 21.332 13.127 9.846-13.128 9.845h-13.127l13.127-9.845-13.127-9.846h13.127Zm21.331 0 13.128 9.846-13.128 9.845h-13.127l13.127-9.845-13.127-9.846h13.127Zm21.333 0 13.127 9.846-13.127 9.845h-13.128l13.128-9.845-13.128-9.846h13.128Zm21.332 0 13.127 9.846-13.127 9.845h-13.128l13.128-9.845-13.128-9.846h13.128Zm21.332 0 13.127 9.846-13.127 9.845H369.21l13.128-9.845-13.128-9.846h13.128Zm21.332 0 13.128 9.846-13.128 9.845h-13.127l13.127-9.845-13.127-9.846h13.127Zm21.332 0 13.128 9.846-13.128 9.845h-13.127l13.127-9.845-13.127-9.846h13.127Zm21.332 0 13.128 9.846-13.128 9.845h-13.127l13.127-9.845-13.127-9.846h13.127Zm21.333 0 13.127 9.846-13.127 9.845h-13.128l13.128-9.845-13.128-9.846h13.128Zm21.332 0 13.127 9.846L489 41.023H475.87L489 31.178l-13.128-9.846H489Zm21.332 0 13.127 9.846-13.127 9.845h-13.128l13.128-9.845-13.128-9.846h13.128Zm21.332 0 13.127 9.846-13.127 9.845h-13.127l13.127-9.845-13.127-9.846h13.127Zm21.332 0 13.128 9.846-13.128 9.845h-13.127l13.127-9.845-13.127-9.846h13.127Zm21.332 0 13.128 9.846-13.128 9.845H561.2l13.127-9.845-13.127-9.846h13.127Zm21.332 0 13.128 9.846-13.128 9.845h-13.127l13.127-9.845-13.127-9.846h13.127Zm21.333 0 13.127 9.846-13.127 9.845h-13.128l13.128-9.845-13.128-9.846h13.128Z" fill="url(#a)"/><path fill="#67C5FF" d="M82.047 9.025h70.56v4.923h-70.56z"/></g><g transform="matrix(-1 0 0 1 1862 2.973)"><path stroke="#028FF1" stroke-width="2.461" stroke-linecap="square" d="M20.512 10.666h618.632l50.87 41.023h306.034"/><path d="m296.189 21.332 13.127 9.846-13.127 9.845H283.06l13.128-9.845-13.128-9.846h13.128Zm21.332 0 13.127 9.846-13.127 9.845h-13.128l13.128-9.845-13.128-9.846h13.128Zm21.332 0 13.128 9.846-13.128 9.845h-13.127l13.127-9.845-13.127-9.846h13.127Zm21.332 0 13.128 9.846-13.128 9.845h-13.127l13.127-9.845-13.127-9.846h13.127Zm21.332 0 13.128 9.846-13.128 9.845H368.39l13.127-9.845-13.127-9.846h13.127Zm21.333 0 13.127 9.846-13.127 9.845h-13.128l13.128-9.845-13.128-9.846h13.128Zm21.332 0 13.127 9.846-13.127 9.845h-13.128l13.128-9.845-13.128-9.846h13.128Zm21.332 0 13.127 9.846-13.127 9.845h-13.128l13.128-9.845-13.128-9.846h13.128Zm21.332 0 13.128 9.846-13.128 9.845H453.72l13.127-9.845-13.127-9.846h13.127Zm21.332 0 13.128 9.846-13.128 9.845h-13.127l13.127-9.845-13.127-9.846h13.127Zm21.332 0 13.128 9.846-13.128 9.845h-13.127l13.127-9.845-13.127-9.846h13.127Zm21.333 0 13.127 9.846-13.127 9.845h-13.128l13.128-9.845-13.128-9.846h13.128Zm21.332 0 13.127 9.846-13.127 9.845h-13.128l13.128-9.845-13.128-9.846h13.128Zm21.332 0 13.127 9.846-13.127 9.845h-13.128l13.128-9.845-13.128-9.846h13.128Zm21.332 0 13.127 9.846-13.127 9.845h-13.127l13.127-9.845-13.127-9.846h13.127Zm21.332 0 13.128 9.846-13.128 9.845h-13.127l13.127-9.845-13.127-9.846h13.127Z" fill="url(#a)"/><circle stroke="#028FF1" stroke-width="2.461" cx="9.846" cy="9.846" r="9.846"/><path stroke="#028FF1" stroke-width="2.461" d="m11.487 19.691 6.563 7.384h227.27l23.793 25.435h387.424"/><path fill="#67C5FF" d="M82.047 9.025h70.56v4.923h-70.56z"/></g></g></svg>
